X:1
T:Title
%%score { 1 | 2 }
L:1/8
Q:1/4=106
M:4/4
K:C
V:1 treble nm="Grand Piano"
V:2 bass 
V:1
 [EG]2 [EA]2 [EG]3 [Ec] | [Fc]2 [FB]2 [FB]4 | G2 A2 G3 d | [Ed]2 [Ec]2 [Ec]4 | %4
w: Hamp~Sewell * * *||||
 [EG]2 [Ec]2 [Ge]3 [^Gd] | [Ac]2 [FA]2 [Ac]4 | c2 BA G2 ^FG | e2 d2 [Ec]4 | %8
w: ||||
 [Ec]2 [EB]>[EB] [EA]2 E>E | G F2 E F4 | d2 c>c B2 A2 | [EA] [EG]2 [G,CE] [CEG]4 | E2 ^F^G A2 GA | %13
w: |||||
 BBAB c4 | A[GB][Ac][^Gd] e2 cc | e2 d2 [Ec]4 |] %16
w: |||
V:2
 [C,C]2 [C,C]2 [C,C]3 [C,G,] | [D,G,]2 [D,G,]2 [D,G,]4 | [G,B,F]2 [G,CF]2 [G,B,F]3 [G,B,F] | %3
 [C,C]2 [C,G,]2 [C,G,]4 | [C,C]2 [C,C]2 [C,C]3 [E,C] | [F,C]2 [F,C]2 [F,C]4 | %6
 [F,_B,_E]2 [F,=B,E][F,CE][K:treble] [G,C=E]2 [_B,C_E][G,C=E] | [G,CG]2 [G,B,F]2[K:bass] [C,C]4 | %8
 [C,C]2 [C,C]>[C,C] [C,C]2 [C,G,C]>[C,G,C] | [E,G,C] [D,G,B,]2 [^C,G,^G,] [D,=G,B,]4 | %10
 [G,B,F]2 [G,CF]>[G,CF] [G,DF]2 [G,B,F]2 | [C,C] [C,C]2 C, C,4 | E,2 ^F,^G, A,2 G,A, | %13
 B,B,B,B, C4 | [F,CF][F,D][F,C][F,C][K:treble] [G,CG]2 [A,CE][A,CE] | %15
 [G,CG]2[K:bass] [G,,G,B,F]2 [C,C]4 |] %16

